resources/webauthn.svg

<svg xmlns="http://www.w3.org/2000/svg" fill="#f4f4f7" fill-opacity="context-fill-opacity" fill-rule="evenodd" viewBox="0 0 32 32"><path d="M11.0013,17.9999 C11.0013,15.2386153 13.2400153,12.9999 16.0013,12.9999 C18.7625847,12.9999 21.0013,15.2386153 21.0013,17.9999 C21.0013,23.5534188 17.4872463,28.4378884 12.3346491,30.2597035 C11.8139531,30.4438071 11.2426002,30.1709451 11.0584965,29.6502491 C10.8743929,29.1295531 11.1472549,28.5582002 11.6679509,28.3740965 C16.027576,26.8326543 19.0013,22.699233 19.0013,17.9999 C19.0013,16.3431847 17.6580153,14.9999 16.0013,14.9999 C14.3445847,14.9999 13.0013,16.3431847 13.0013,17.9999 C13.0013,20.7611847 10.7625847,22.9999 8.0013,22.9999 C5.24001525,22.9999 3.0013,20.7611847 3.0013,17.9999 C3.0013,10.8206153 8.82201525,4.9999 16.0013,4.9999 C23.1805847,4.9999 29.0013,10.8206153 29.0013,17.9999 C29.0013,19.4211716 28.8597186,20.8259325 28.581352,22.1986412 C28.4715903,22.739909 27.9438266,23.0897137 27.4025588,22.979952 C26.861291,22.8701903 26.5114863,22.3424266 26.621248,21.8011588 C26.8731384,20.559012 27.0013,19.2874016 27.0013,17.9999 C27.0013,11.9251847 22.0760153,6.9999 16.0013,6.9999 C9.92658475,6.9999 5.0013,11.9251847 5.0013,17.9999 C5.0013,19.6566153 6.34458475,20.9999 8.0013,20.9999 C9.65801525,20.9999 11.0013,19.6566153 11.0013,17.9999 Z"/><path d="M8.0013,26.9999 C7.44901525,26.9999 7.0013,26.5521847 7.0013,25.9999 C7.0013,25.4476153 7.44901525,24.9999 8.0013,24.9999 C11.8670153,24.9999 15.0013,21.8656153 15.0013,17.9999 C15.0013,17.4476153 15.4490153,16.9999 16.0013,16.9999 C16.5535847,16.9999 17.0013,17.4476153 17.0013,17.9999 C17.0013,22.9701847 12.9715847,26.9999 8.0013,26.9999 Z"/><path d="M9.0013 17.9999C9.0013 18.5521847 8.55358475 18.9999 8.0013 18.9999 7.44901525 18.9999 7.0013 18.5521847 7.0013 17.9999 7.0013 13.0296153 11.0310153 8.9999 16.0013 8.9999 20.9715847 8.9999 25.0013 13.0296153 25.0013 17.9999 25.0013 21.0536668 24.2197241 23.9472067 22.7567899 26.4983547 22.4820533 26.9774562 21.8709467 27.1431266 21.3918453 26.8683899 20.9127438 26.5936533 20.7470734 25.9825467 21.0218101 25.5034453 22.3122709 23.2530661 23.0013 20.7021516 23.0013 18.0499 23.0013 14.1341847 19.8670153 10.9999 16.0013 10.9999 12.1355847 10.9999 9.0013 14.1341847 9.0013 17.9999zM4.74954564 8.07962613C4.38408439 8.49369922 3.75214695 8.53310689 3.33807387 8.16764564 2.92400078 7.80218439 2.88459311 7.17024695 3.25005436 6.75617387 6.45721717 3.12241027 11.0590025.9999 16.0008.9999 20.9435975.9999 25.5453828 3.12241027 28.7525456 6.75617387 29.1180069 7.17024695 29.0785992 7.80218439 28.6645261 8.16764564 28.2504531 8.53310689 27.6185156 8.49369922 27.2530544 8.07962613 24.4216114 4.87155881 20.3636937 2.9999 16.0018 2.9999 11.6389063 2.9999 7.58098857 4.87155881 4.74954564 8.07962613z"/></svg>

<svg fill="#f4f4f7" fill-opacity="context-fill-opacity" fill-rule="evenodd" viewBox="0 0 32 32">
  <path d="M11.001 18a5 5 0 0 1 10 0 13.004 13.004 0 0 1-8.666 12.26 1 1 0 0 1-.667-1.886A11.004 11.004 0 0 0 19.001 18a3 3 0 0 0-6 0 5 5 0 0 1-10 0c0-7.18 5.821-13 13-13 7.18 0 13 5.82 13 13 0 1.421-.141 2.826-.42 4.199a1 1 0 1 1-1.96-.398c.252-1.242.38-2.514.38-3.801 0-6.075-4.925-11-11-11-6.074 0-11 4.925-11 11a3 3 0 0 0 6 0Z"/>
  <path d="M8.001 27a1 1 0 0 1 0-2 7 7 0 0 0 7-7 1 1 0 0 1 2 0 9 9 0 0 1-9 9Z"/>
  <path d="M9.001 18a1 1 0 0 1-2 0 9 9 0 0 1 18 0 16.98 16.98 0 0 1-2.244 8.498 1 1 0 1 1-1.735-.995 14.934 14.934 0 0 0 1.98-7.453c0-3.916-3.135-7.05-7-7.05a7 7 0 0 0-7 7zM4.75 8.08a1 1 0 1 1-1.5-1.324A16.96 16.96 0 0 1 16 1a16.96 16.96 0 0 1 12.753 5.756 1 1 0 1 1-1.5 1.324A14.96 14.96 0 0 0 16.002 3 14.959 14.959 0 0 0 4.75 8.08z"/>
</svg>
